docs/img/arrow-view.svg

<svg xmlns="http://www.w3.org/2000/svg" width="19" height="15"><path fill-rule="evenodd" fill="#EBB240" d="M19 7.299v.402l.015.014L19 7.73V8h-.27l-7.015 7.015-.73-.73L17.27 8H0V7h17.27L10.985.715l.73-.73L18.73 7H19v.27l.015.015-.015.014z"/></svg>

<svg
        xmlns="http://www.w3.org/2000/svg"
        xmlns:xlink="http://www.w3.org/1999/xlink"
        width="19px" height="15px">
    <path fill-rule="evenodd"  fill="rgb(235, 178, 64)"
          d="M19.000,7.299 L19.000,7.701 L19.015,7.715 L19.000,7.730 L19.000,8.000 L18.730,8.000 L11.715,15.015 L10.985,14.285 L17.270,8.000 L0.000,8.000 L0.000,7.000 L17.270,7.000 L10.985,0.715 L11.715,-0.015 L18.730,7.000 L19.000,7.000 L19.000,7.270 L19.015,7.285 L19.000,7.299 Z"/>
</svg>
